_site/images/homepage/logos/microsoft-azure-small.svg

<svg fill="none" height="45" viewBox="0 0 61 45" width="61" xmlns="http://www.w3.org/2000/svg"><path clip-rule="evenodd" d="m23.2035 18.3301 9.6134-8.3301-10.4203 23.0433h-7.3966zm6.7887 5.1738 4.1027-11.5549 13.5145 24.051h-25.0118l15.2612-2.6202z" fill="#0072c6" fill-rule="evenodd"/></svg>

<svg width="61" height="45" viewBox="0 0 61 45" fill="none" xmlns="http://www.w3.org/2000/svg">
<path fill-rule="evenodd" clip-rule="evenodd" d="M23.2035 18.3301L32.8169 10L22.3966 33.0433H15L23.2035 18.3301ZM29.9922 23.5039L34.0949 11.949L47.6094 36H22.5976L37.8588 33.3798L29.9922 23.5039Z" fill="#0072C6"/>
</svg>
